X:15
T:Dark Girl
Z: id:dc-polka-12
M:2/4
L:1/8
K:D Major
FA Ad|B/c/d/B/ AF|GB AF/A/|BE G/F/E/D/|!
FA Ad|B/c/d/B/ AF|GB A/B/A/G/|FD DE:|!
FA A/B/d/e/|f/e/f/d/ ed|Bd/B/ AF/A/|BE G/F/E/D/|!
FA A/B/d/e/|f/e/f/d/ ed|Bd/B/ A/B/A/G/|FD DE:|!

